src/assets/svgs/star.svg

<svg width="10" height="10" viewBox="0 0 10 10" fill="none" xmlns="http://www.w3.org/2000/svg">
<path d="M4.62893 1.28736L3.95838 3.44463C3.9025 3.61954 3.75083 3.73615 3.57521 3.73615H1.40391C1.01276 3.73615 0.853106 4.25256 1.16443 4.49411L2.92062 5.82679C3.06431 5.93507 3.12019 6.11831 3.06431 6.29322L2.39377 8.45049C2.27403 8.83364 2.69711 9.15848 3.00843 8.91693L4.76463 7.58426C4.90832 7.47598 5.09192 7.47598 5.23561 7.58426L6.99181 8.91693C7.30313 9.15848 7.72622 8.83364 7.60648 8.45049L6.93593 6.29322C6.88005 6.11831 6.93593 5.93507 7.07962 5.82679L8.83581 4.49411C9.14714 4.25256 8.98749 3.73615 8.59633 3.73615H6.42504C6.24942 3.73615 6.09775 3.61954 6.04187 3.44463L5.37132 1.28736C5.25158 0.904214 4.72472 0.904214 4.60498 1.28736H4.62893Z" stroke="white" stroke-width="0.712996" stroke-miterlimit="10"/>
</svg>

<svg xmlns="http://www.w3.org/2000/svg" width="10" height="10" fill="none" viewBox="0 0 10 10"><path stroke="#fff" stroke-miterlimit="10" stroke-width=".713" d="m4.629 1.287-.67 2.158a.405.405 0 0 1-.384.291H1.404c-.391 0-.55.517-.24.758l1.757 1.333c.143.108.2.291.143.466l-.67 2.157c-.12.384.303.708.614.467l1.757-1.333a.38.38 0 0 1 .47 0l1.757 1.333c.311.241.734-.083.614-.467l-.67-2.157a.42.42 0 0 1 .144-.466l1.756-1.333c.311-.241.151-.758-.24-.758H6.425a.405.405 0 0 1-.383-.291l-.67-2.158a.4.4 0 0 0-.767 0z"/></svg>
